svgs/maimai_data.svg

<svg width="192" height="192" viewBox="0 0 192 192" fill="none" xmlns="http://www.w3.org/2000/svg">
<path d="M46 96C46 92.6613 46.3272 89.3991 46.9514 86.2436M46 96C46 99.3387 46.3272 102.601 46.9514 105.756C48.249 112.317 50.8301 118.416 54.4222 123.781C58.0724 129.234 62.7665 133.928 68.2186 137.578C73.5838 141.17 79.683 143.751 86.2436 145.049C89.3991 145.673 92.6613 146 96 146C99.3386 146 102.601 145.673 105.756 145.049C112.317 143.751 118.416 141.17 123.781 137.578C129.233 133.928 133.928 129.233 137.578 123.781C141.17 118.416 143.751 112.317 145.049 105.756C145.673 102.601 146 99.3387 146 96M46 96C46 96 48.6626 112.141 68.2186 112.141C85.2323 112.141 90.104 95.3803 90.4131 87M46.9514 86.2436C48.249 79.683 50.8301 73.5838 54.4222 68.2186C50.61 64.4065 50.6069 58.2343 54.419 54.4222C58.2312 50.61 64.4064 50.61 68.2186 54.4222C73.5838 50.8301 79.683 48.249 86.2436 46.9514C89.3991 46.3272 92.6613 46 96 46C99.3387 46 102.601 46.3272 105.756 46.9514C112.317 48.249 118.416 50.8301 123.781 54.4222C127.594 50.61 133.769 50.61 137.581 54.4222C141.393 58.2343 141.39 64.4065 137.578 68.2186C141.17 73.5838 143.751 79.683 145.049 86.2436M46.9514 86.2436C46.9514 86.2436 46 83.2754 71.7903 83.2754C90.4131 83.2754 90.4131 87 90.4131 87M145.049 86.2436C145.673 89.3991 146 92.6613 146 96M145.049 86.2436C142.241 85.0021 146 83.2754 120.21 83.2754C101.587 83.2754 101.587 87 101.587 87M146 96C146 96 143.337 112.141 123.781 112.141C106.768 112.141 101.896 95.3803 101.587 87M90.4131 87H101.587M96 122.072L90.4131 126.728M96 122.072L101.587 126.728M96 122.072V116.5M96 116.5V116.485L94.5 115H97.5L96 116.5ZM33.2712 54.086L52.2549 66.7705M22 81.2805L44.3947 85.7351M22 110.72L44.3947 106.265M33.2712 137.914L52.2549 125.23M54.086 158.729L66.7705 139.745M81.2805 170L85.7351 147.605M106.265 147.605L110.719 170M125.229 139.745L137.914 158.729M139.745 125.229L158.729 137.914M147.605 106.265L170 110.72M147.605 85.7351L170 81.2805M139.745 66.7705L158.729 54.086M125.229 52.2549L137.914 33.2712M106.265 44.3947L110.72 22M81.2805 22L85.7351 44.3947M54.086 33.2712L66.7705 52.2549M172 96C172 101.075 171.503 106.033 170.554 110.83C168.582 120.802 164.658 130.073 159.198 138.228C153.65 146.515 146.515 153.65 138.228 159.198C130.073 164.658 120.802 168.582 110.83 170.554C106.033 171.503 101.075 172 96 172C90.9252 172 85.9666 171.503 81.1703 170.554C71.1981 168.582 61.9273 164.658 53.7722 159.198C45.4851 153.65 38.35 146.515 32.8017 138.228C27.3418 130.073 23.4185 120.802 21.4461 110.83C20.4974 106.033 20 101.075 20 96C20 90.9252 20.4974 85.9666 21.4461 81.1703C23.4185 71.1981 27.3418 61.9273 32.8017 53.7722C38.35 45.4851 45.4851 38.35 53.7722 32.8017C61.9273 27.3418 71.1981 23.4185 81.1703 21.4461C85.9666 20.4974 90.9252 20 96 20C101.075 20 106.033 20.4974 110.83 21.4461C120.802 23.4185 130.073 27.3418 138.228 32.8017C146.515 38.35 153.65 45.4851 159.198 53.7722C164.658 61.9273 168.582 71.1981 170.554 81.1703C171.503 85.9666 172 90.9252 172 96Z" stroke="#000" stroke-width="8" stroke-linecap="round" stroke-linejoin="round"/>
</svg>

<svg xmlns="http://www.w3.org/2000/svg" width="192" height="192" fill="none"><path stroke="#000" stroke-linecap="round" stroke-linejoin="round" stroke-width="8" d="M46 96c0-3.339.327-6.6.951-9.756M46 96c0 3.339.327 6.601.951 9.756a49.7 49.7 0 0 0 7.471 18.025 50.3 50.3 0 0 0 13.797 13.797 49.7 49.7 0 0 0 18.025 7.471c3.155.624 6.417.951 9.756.951s6.601-.327 9.756-.951a49.7 49.7 0 0 0 18.025-7.471 50.3 50.3 0 0 0 13.797-13.797 49.7 49.7 0 0 0 7.471-18.025c.624-3.155.951-6.417.951-9.756M46 96s2.663 16.141 22.219 16.141c17.013 0 21.885-16.76 22.194-25.141m-43.462-.756a49.7 49.7 0 0 1 7.471-18.025c-3.812-3.812-3.815-9.985-.003-13.797a9.755 9.755 0 0 1 13.8 0 49.7 49.7 0 0 1 18.025-7.47A50.2 50.2 0 0 1 96 46c3.339 0 6.601.327 9.756.951a49.7 49.7 0 0 1 18.025 7.471 9.755 9.755 0 0 1 13.8 0c3.812 3.812 3.809 9.984-.003 13.797a49.7 49.7 0 0 1 7.471 18.025m-98.098 0s-.951-2.969 24.84-2.969C90.412 83.275 90.412 87 90.412 87m54.636-.756c.624 3.155.951 6.417.951 9.756m-.951-9.756c-2.808-1.242.951-2.969-24.839-2.969-18.623 0-18.623 3.725-18.623 3.725M146 96s-2.663 16.141-22.219 16.141c-17.013 0-21.885-16.76-22.194-25.141m-11.174 0h11.174M96 122.072l-5.587 4.656M96 122.072l5.587 4.656M96 122.072V116.5m0 0v-.015L94.5 115h3zM33.271 54.086l18.984 12.685M22 81.28l22.395 4.454M22 110.72l22.395-4.455M33.27 137.914l18.984-12.684m1.831 33.499 12.685-18.984M81.28 170l4.454-22.395m20.53 0L110.719 170m14.51-30.255 12.685 18.984m1.831-33.5 18.984 12.685m-11.124-31.649L170 110.72m-22.395-24.985L170 81.281m-30.255-14.51 18.984-12.685m-33.5-1.831 12.685-18.984m-31.649 11.124L110.72 22m-29.44 0 4.455 22.395M54.086 33.27l12.685 18.984M172 96c0 5.075-.497 10.033-1.446 14.83a75.6 75.6 0 0 1-11.356 27.398 76.4 76.4 0 0 1-20.97 20.97 75.6 75.6 0 0 1-27.398 11.356A76.4 76.4 0 0 1 96 172a76.4 76.4 0 0 1-14.83-1.446 75.6 75.6 0 0 1-27.398-11.356 76.4 76.4 0 0 1-20.97-20.97 75.6 75.6 0 0 1-11.356-27.398A76.4 76.4 0 0 1 20 96a76.4 76.4 0 0 1 1.446-14.83 75.6 75.6 0 0 1 11.356-27.398 76.4 76.4 0 0 1 20.97-20.97A75.6 75.6 0 0 1 81.17 21.446 76.4 76.4 0 0 1 96 20c5.075 0 10.033.497 14.83 1.446a75.6 75.6 0 0 1 27.398 11.356 76.4 76.4 0 0 1 20.97 20.97 75.6 75.6 0 0 1 11.356 27.398A76.4 76.4 0 0 1 172 96"/></svg>
